public/images/icons/shield.svg

<svg fill="none" height="40" viewBox="0 0 32 40" width="32" xmlns="http://www.w3.org/2000/svg" xmlns:xlink="http://www.w3.org/1999/xlink"><linearGradient id="a"><stop offset="0" stop-color="#ffe7e0"/><stop offset=".34375" stop-color="#f8dbf4"/><stop offset=".6875" stop-color="#c4ddff"/><stop offset="1" stop-color="#cae9ff"/></linearGradient><linearGradient id="b" gradientUnits="userSpaceOnUse" x1=".25" x2="27.2392" xlink:href="#a" y1="20" y2="8.96632"/><linearGradient id="c" gradientUnits="userSpaceOnUse" x1="2" x2="26.1424" xlink:href="#a" y1="20" y2="10.3495"/><path d="m16 .75-15.75 7v10.5c0 13.7025 11.2682 20.1005 15.75 21 4.4818-.8995 15.75-7.2975 15.75-21v-10.5zm12.25 17.5c0 10.7345-8.3738 16.1945-12.25 17.3898-3.8762-1.1953-12.25-6.6553-12.25-17.3898v-8.225l12.25-5.44425 12.25 5.44425z" fill="url(#b)"/><path d="m30 18.25c0 10.7345-9.569 18.0547-14 19.25-4.431-1.1953-14-8.5155-14-19.25v-8.225l14-7.525 14 7.525z" fill="url(#c)" opacity=".3"/></svg>

<svg width="32" height="40" viewBox="0 0 32 40" fill="none" xmlns="http://www.w3.org/2000/svg">
<path d="M16 0.75L0.25 7.75V18.25C0.25 31.9525 11.5182 38.3505 16 39.25C20.4818 38.3505 31.75 31.9525 31.75 18.25V7.75L16 0.75ZM28.25 18.25C28.25 28.9845 19.8762 34.4445 16 35.6398C12.1238 34.4445 3.75 28.9845 3.75 18.25V10.025L16 4.58075L28.25 10.025V18.25Z" fill="url(#paint0_linear_25_487)"/>
<path opacity="0.3" d="M30 18.25C30 28.9845 20.431 36.3047 16 37.5C11.569 36.3047 2 28.9845 2 18.25V10.025L16 2.5L30 10.025V18.25Z" fill="url(#paint1_linear_25_487)"/>
<defs>
<linearGradient id="paint0_linear_25_487" x1="0.25" y1="20" x2="27.2392" y2="8.96632" gradientUnits="userSpaceOnUse">
<stop stop-color="#FFE7E0"/>
<stop offset="0.34375" stop-color="#F8DBF4"/>
<stop offset="0.6875" stop-color="#C4DDFF"/>
<stop offset="1" stop-color="#CAE9FF"/>
</linearGradient>
<linearGradient id="paint1_linear_25_487" x1="2" y1="20" x2="26.1424" y2="10.3495" gradientUnits="userSpaceOnUse">
<stop stop-color="#FFE7E0"/>
<stop offset="0.34375" stop-color="#F8DBF4"/>
<stop offset="0.6875" stop-color="#C4DDFF"/>
<stop offset="1" stop-color="#CAE9FF"/>
</linearGradient>
</defs>
</svg>
